X: 27928
T: Mountain Stream, The
R: barndance
M: 4/4
K: Gmajor
d2 d>e d>B G2|A2 A>B A>G E2|D2 D>G E2 E>G|D2 D>G E2 (3GAB|
d3 e d>BG>B|A3 B A>G (3EFG|D2 D>E G2 (3ABc|d>BA<F G2:|
d2 B>d g2 f>e|d2 B>G A2 G>E|D3 G E2 (3EFG|D2 D>G E>F (3GAB|
d2 (3Bcd (3gfg (3gfe|(3ded (3BAG (3ABA (3GFE|D3 G E>FG>B|d>BA>F G2:|
B2 B>A G2 (3GFE|D2 B>G A>BG>E|D3 G E3 G|D2 D>G E>FG>A|
B3 A G3 E|D>GB>G A2 (3Bcd|e3 g e>d (3Bcd|g>BA<F G2:|

